src/assets/svg/skills/css.svg

<svg width="256" height="290" viewBox="0 0 256 290" fill="none" xmlns="http://www.w3.org/2000/svg">
<g clip-path="url(#clip0)">
<path d="M127.844 289.088L23.6618 260.166L0.445312 -0.234375H255.555L232.314 260.125L127.844 289.088Z" fill="#264DE4"/>
<path d="M212.417 243.547L232.278 21.0576H128V266.951L212.417 243.547Z" fill="#2965F1"/>
<path d="M53.668 117.636L56.5304 149.572H127.999V117.636H53.668Z" fill="#EBEBEB"/>
<path d="M47.918 52.9951L50.8212 84.9325H128.001V52.9951H47.918Z" fill="#EBEBEB"/>
<path d="M128.001 200.58L127.861 200.618L92.2925 191.013L90.0188 165.542H57.959L62.4334 215.688L127.854 233.849L128.001 233.808V200.58Z" fill="#EBEBEB"/>
<path d="M202.128 117.637L207.893 52.9951H127.891V84.9325H172.893L169.987 117.637H127.891V149.573H167.218L163.51 190.993L127.891 200.607V233.834L193.363 215.688L193.844 210.292L201.349 126.213L202.128 117.637Z" fill="white"/>
</g>
<defs>
<clipPath id="clip0">
<rect width="256" height="290" fill="white"/>
</clipPath>
</defs>
</svg>

<svg xmlns="http://www.w3.org/2000/svg" width="256" height="290" fill="none"><g clip-path="url(#a)"><path fill="#264DE4" d="M127.844 289.088 23.662 260.166.445-.234h255.11l-23.241 260.359-104.47 28.963Z"/><path fill="#2965F1" d="m212.417 243.547 19.861-222.49H128v245.894l84.417-23.404Z"/><path fill="#EBEBEB" d="m53.668 117.636 2.862 31.936H128v-31.936H53.668ZM47.918 52.995l2.903 31.938h77.18V52.995H47.918ZM128.001 200.58l-.14.038-35.569-9.605-2.273-25.471h-32.06l4.474 50.146 65.421 18.161.147-.041V200.58Z"/><path fill="#fff" d="m202.128 117.637 5.765-64.642h-80.002v31.938h45.002l-2.906 32.704h-42.096v31.936h39.327l-3.708 41.42-35.619 9.614v33.227l65.472-18.146.481-5.396 7.505-84.079.779-8.576Z"/></g><defs><clipPath id="a"><path fill="#fff" d="M0 0h256v290H0z"/></clipPath></defs></svg>
